public/assets/logo_ohmyfood.svg

<svg width="236" height="41" viewBox="0 0 236 41" fill="none" xmlns="http://www.w3.org/2000/svg">
<g clip-path="url(#clip0_156_608)">
<path d="M16.378 9.05676C20.3169 9.05676 23.2131 9.84743 25.0666 11.4288C26.9492 13.0101 27.8905 15.0803 27.8905 17.6391C27.8905 18.5017 27.7746 19.4649 27.5429 20.5287C26.9926 22.8863 25.9645 24.9565 24.4585 26.739C22.9524 28.4929 21.0989 29.8587 18.8977 30.8361C16.7256 31.785 14.3652 32.2594 11.8165 32.2594C7.79079 32.2594 4.8077 31.4687 2.86725 29.8874C0.955747 28.2772 0 26.1497 0 23.5045C0 22.6131 0.115848 21.6213 0.347544 20.5287C0.897823 18.286 1.94045 16.3022 3.47544 14.5771C5.03939 12.8233 6.93641 11.4719 9.16649 10.5231C11.4255 9.54554 13.8294 9.05676 16.378 9.05676ZM16.2477 12.8951C15.6395 12.8951 14.9879 13.4414 14.2928 14.5339C13.6266 15.5978 12.8301 17.6247 11.9034 20.6149C10.9766 23.6051 10.5132 25.7039 10.5132 26.9116C10.5132 27.544 10.6146 27.9753 10.8173 28.2054C11.0201 28.4067 11.2952 28.5073 11.6427 28.5073C12.251 28.5648 12.8737 28.0473 13.5108 26.9547C14.1769 25.8621 15.0023 23.7345 15.987 20.5718C16.8849 17.7829 17.3337 15.7559 17.3337 14.4908C17.3337 13.887 17.2324 13.4701 17.0296 13.2402C16.8559 13.0101 16.5953 12.8951 16.2477 12.8951Z" fill="#E8E8E8"/>
<path d="M53.8572 25.9196C53.7992 26.0346 53.7702 26.2071 53.7702 26.4372C53.7702 26.6384 53.8138 26.7965 53.9006 26.9116C54.0165 27.0266 54.1613 27.084 54.3351 27.084C54.6826 27.084 54.9722 26.9403 55.2039 26.6528C55.4646 26.3365 55.6383 26.1784 55.7252 26.1784C55.87 26.1784 55.9859 26.279 56.0727 26.4803C56.1596 26.6528 56.203 26.8685 56.203 27.1272C56.232 27.9609 55.9569 28.7804 55.3776 29.5855C54.7985 30.3618 53.944 31.0087 52.8145 31.5262C51.7139 32.015 50.3817 32.2594 48.8177 32.2594C46.9063 32.2594 45.3857 31.8281 44.2562 30.9655C43.1267 30.0742 42.5475 28.8954 42.5186 27.4291C42.5186 26.3652 42.7792 25.1721 43.3004 23.8495L45.6898 17.6391C45.8347 17.2653 45.907 16.9635 45.907 16.7335C45.907 16.3597 45.7768 16.0722 45.5161 15.8709C45.2844 15.6409 44.9948 15.5259 44.6472 15.5259C44.0969 15.5259 43.5322 15.7846 42.9529 16.3022C42.4027 16.791 41.9537 17.596 41.6062 18.7173V18.6311L38.8693 27.386C38.7824 27.731 38.739 28.0329 38.739 28.2916C38.739 28.6654 38.8113 28.9673 38.9561 29.1973C39.101 29.3985 39.3038 29.5999 39.5644 29.8011C39.7671 30.0024 39.9119 30.1748 39.9988 30.3187C40.0857 30.4336 40.1001 30.5917 40.0422 30.793C39.8974 31.1668 39.6078 31.44 39.1734 31.6124C38.739 31.785 38.0728 31.8712 37.175 31.8712H27.27C26.5169 31.8712 25.9667 31.7563 25.6192 31.5262C25.2716 31.2674 25.1558 30.9368 25.2716 30.5342C25.3874 30.1892 25.6915 29.8874 26.1839 29.6286C26.6183 29.3985 26.9803 29.1255 27.27 28.8092C27.5596 28.4929 27.8058 27.9898 28.0086 27.2997L34.6118 5.77908C34.6988 5.52032 34.7422 5.30469 34.7422 5.13217C34.7422 4.81591 34.6553 4.55714 34.4816 4.35588C34.3367 4.15461 34.1339 3.95335 33.8733 3.7521C33.5837 3.52208 33.3665 3.32081 33.2217 3.14831C33.1058 2.97579 33.0914 2.74578 33.1783 2.45827C33.352 1.79698 34.2643 1.22194 35.9152 0.733166C37.566 0.244388 39.2892 0 41.0849 0C42.7647 0 43.9956 0.316268 44.7775 0.948806C45.5884 1.58133 45.994 2.44389 45.994 3.53646C45.994 4.16899 45.8925 4.78715 45.6898 5.39094L43.344 12.9814C44.4735 11.515 45.6609 10.4944 46.9063 9.91933C48.1805 9.34429 49.5563 9.05677 51.0333 9.05677C52.8 9.05677 54.2192 9.58868 55.2908 10.6525C56.3913 11.7163 56.9416 13.0963 56.9416 14.7927C56.9416 15.684 56.7968 16.561 56.5072 17.4235L53.8572 25.9196Z" fill="#E8E8E8"/>
<path d="M99.3838 25.9196C99.3259 26.0346 99.2969 26.2071 99.2969 26.4371C99.2969 26.6384 99.3403 26.7965 99.4273 26.9116C99.5431 27.0266 99.6879 27.084 99.8616 27.084C100.209 27.084 100.499 26.9403 100.731 26.6528C100.991 26.3365 101.165 26.1784 101.252 26.1784C101.397 26.1784 101.513 26.279 101.599 26.4803C101.686 26.6528 101.73 26.8685 101.73 27.1272C101.759 27.9609 101.484 28.7804 100.904 29.5855C100.325 30.3618 99.4707 31.0086 98.3412 31.5262C97.2406 32.015 95.9084 32.2594 94.3444 32.2594C92.4329 32.2594 90.9124 31.8281 89.7829 30.9655C88.6534 30.0742 88.0741 28.8954 88.0451 27.4291C88.0451 26.3652 88.3058 25.1721 88.8271 23.8495L91.2165 17.6391C91.3612 17.2653 91.4337 16.9634 91.4337 16.7335C91.4337 16.3597 91.3034 16.0722 91.0428 15.8709C90.811 15.6409 90.5214 15.5259 90.1738 15.5259C89.6815 15.5259 89.1747 15.7415 88.6534 16.1729C88.1321 16.6041 87.6687 17.2797 87.2632 18.1998L84.8738 25.9196C84.8159 26.0346 84.7869 26.2071 84.7869 26.4371C84.7869 26.6384 84.8304 26.7965 84.9173 26.9116C85.0331 27.0266 85.1779 27.084 85.3516 27.084C85.6993 27.084 85.9888 26.9403 86.2206 26.6528C86.4812 26.3365 86.6549 26.1784 86.7419 26.1784C86.8867 26.1784 87.0026 26.279 87.0894 26.4803C87.1763 26.6528 87.2197 26.8685 87.2197 27.1272C87.2487 27.9609 86.9735 28.7804 86.3943 29.5855C85.815 30.3618 84.9607 31.0086 83.8312 31.5262C82.7306 32.015 81.3984 32.2594 79.8344 32.2594C77.9229 32.2594 76.4024 31.8281 75.2729 30.9655C74.1434 30.0742 73.5641 28.8954 73.5352 27.4291C73.5352 26.3652 73.7958 25.1721 74.3171 23.8495L76.7065 17.6391C76.8514 17.2653 76.9237 16.9634 76.9237 16.7335C76.9237 16.3597 76.7934 16.0722 76.5328 15.8709C76.301 15.6409 76.0115 15.5259 75.6638 15.5259C75.1715 15.5259 74.6647 15.7415 74.1434 16.1729C73.6221 16.5754 73.1876 17.2366 72.8401 18.1567L69.9728 27.386C69.857 27.7022 69.7991 28.0042 69.7991 28.2916C69.7991 28.6366 69.8714 28.9242 70.0162 29.1542C70.1611 29.3554 70.3639 29.5711 70.6245 29.8011C70.8272 29.9736 70.972 30.1317 71.0589 30.2754C71.1458 30.4193 71.1602 30.5917 71.1023 30.793C70.9865 31.1668 70.7114 31.44 70.2769 31.6124C69.8425 31.785 69.1619 31.8712 68.2351 31.8712H58.3301C57.5771 31.8712 57.0413 31.7563 56.7227 31.5262C56.3752 31.2674 56.2448 30.9368 56.3318 30.5342C56.4475 30.1892 56.7516 29.8874 57.244 29.6286C57.6785 29.3985 58.0405 29.1255 58.3301 28.8092C58.6197 28.4929 58.8659 27.9898 59.0687 27.2997L62.935 14.8359C62.993 14.692 63.0219 14.4908 63.0219 14.232C63.0219 13.9157 62.9496 13.6714 62.8048 13.4989C62.6889 13.3264 62.4862 13.1107 62.1965 12.852C61.9069 12.622 61.7042 12.4208 61.5883 12.2482C61.4724 12.0757 61.458 11.8457 61.5449 11.5582C61.7187 10.8969 62.631 10.3218 64.2818 9.83306C65.9326 9.31553 67.6559 9.05676 69.4515 9.05676C70.8707 9.05676 71.9856 9.44492 72.7967 10.2212C73.6366 10.9975 74.042 12.0613 74.013 13.4126C75.2004 11.7738 76.4458 10.6381 77.7491 10.0056C79.0813 9.37304 80.515 9.05676 82.05 9.05676C83.7298 9.05676 85.0911 9.54554 86.1336 10.5231C87.2053 11.4719 87.7989 12.7226 87.9148 14.2751C89.1602 12.32 90.4924 10.9687 91.9116 10.2212C93.3307 9.44492 94.8802 9.05676 96.56 9.05676C98.3267 9.05676 99.7459 9.58867 100.817 10.6525C101.918 11.7163 102.468 13.0963 102.468 14.7927C102.468 15.684 102.323 16.5609 102.034 17.4235L99.3838 25.9196Z" fill="#E8E8E8"/>
<path d="M126.192 9.05679C127.466 9.05679 128.48 9.57433 129.232 10.6094C130.015 11.6157 130.405 12.9957 130.405 14.7496C130.405 16.2735 130.13 17.9123 129.581 19.6662C128.509 23.2026 126.785 26.5378 124.411 29.6717C122.065 32.8056 119.357 35.3214 116.287 37.219C113.246 39.1167 110.205 40.0655 107.164 40.0655C105.658 40.0655 104.355 39.8067 103.254 39.2892C102.182 38.7716 101.371 38.0816 100.821 37.219C100.242 36.3565 99.9523 35.4364 99.9523 34.4589C99.9523 34.0276 100.025 33.5532 100.17 33.0357C100.43 32.2306 100.865 31.6124 101.473 31.1812C102.081 30.7499 102.805 30.5342 103.645 30.5342C104.977 30.5342 106.063 30.98 106.903 31.8712C107.772 32.7912 108.322 34.042 108.554 35.6233C110.408 35.5371 112.116 34.7463 113.68 33.2514C112.203 32.9926 111.103 32.5038 110.379 31.785C109.684 31.0375 109.206 29.8874 108.945 28.3348L107.207 17.7686C107.12 17.2222 106.99 16.8484 106.816 16.6472C106.672 16.4172 106.469 16.3022 106.208 16.3022C106.005 16.3022 105.759 16.4028 105.47 16.6041C105.209 16.8053 105.021 16.906 104.905 16.906C104.673 16.906 104.557 16.6616 104.557 16.1729C104.557 15.7703 104.63 15.3391 104.774 14.879C105.296 13.2402 106.266 11.86 107.685 10.7388C109.104 9.5887 110.755 9.01367 112.638 9.01367C114.491 9.01367 115.852 9.55994 116.721 10.6525C117.619 11.7451 118.198 13.4271 118.459 15.6985L119.762 25.1864C119.849 25.9052 120.11 26.2646 120.544 26.2646C121.066 26.2646 121.673 25.8046 122.368 24.8846C123.065 23.9358 123.744 22.5989 124.411 20.8737C123.542 20.0974 122.876 19.2062 122.412 18.1998C121.949 17.1935 121.717 16.1154 121.717 14.9653C121.717 14.0739 121.833 13.2689 122.065 12.5501C122.412 11.4001 122.948 10.5375 123.672 9.96247C124.425 9.35868 125.265 9.05679 126.192 9.05679Z" fill="#E8E8E8"/>
<path d="M147.832 0C150.93 0 153.248 0.474403 154.783 1.4232C156.346 2.34326 157.129 3.47896 157.129 4.83028C157.129 5.92284 156.665 6.77102 155.739 7.3748C154.841 7.94983 153.652 8.23735 152.176 8.23735C150.815 8.23735 149.757 7.90671 149.004 7.24542C148.252 6.58413 147.875 5.76471 147.875 4.78715C147.875 4.18337 148.063 3.55083 148.439 2.88954C147.571 2.88954 146.847 3.10518 146.268 3.53646C145.689 3.93898 145.239 4.64339 144.92 5.64971C144.747 6.28224 144.66 6.87165 144.66 7.41793C144.66 8.10797 144.777 8.65425 145.008 9.05677C145.269 9.43054 145.631 9.61743 146.093 9.61743H148.658C150.163 9.61743 150.916 10.0775 150.916 10.9975C150.916 11.1125 150.887 11.285 150.829 11.515C150.655 12.1476 150.293 12.622 149.743 12.9382C149.222 13.2545 148.425 13.4126 147.354 13.4126H146.051L141.75 27.386C141.663 27.731 141.619 28.0329 141.619 28.2916C141.619 28.6654 141.692 28.9673 141.836 29.1973C141.981 29.3985 142.184 29.5999 142.445 29.8011C142.648 30.0024 142.792 30.1748 142.879 30.3187C142.966 30.4336 142.981 30.5917 142.923 30.793C142.778 31.1668 142.489 31.44 142.054 31.6124C141.619 31.785 140.953 31.8712 140.055 31.8712H130.15C129.398 31.8712 128.847 31.7563 128.5 31.5262C128.152 31.2674 128.036 30.9368 128.151 30.5342C128.268 30.1892 128.572 29.8874 129.064 29.6286C129.499 29.3985 129.86 29.1255 130.15 28.8092C130.44 28.4929 130.686 27.9898 130.889 27.2997L134.277 16.2591C134.422 15.8278 134.494 15.3821 134.494 14.9221C134.494 14.3471 134.364 13.9015 134.103 13.5852C133.872 13.2402 133.51 12.8664 133.018 12.4639C132.699 12.2051 132.453 11.9895 132.279 11.8169C132.134 11.6157 132.062 11.3857 132.062 11.1269C132.033 10.5806 132.221 10.1925 132.626 9.96245C133.061 9.73244 133.872 9.61743 135.059 9.61743H136.146C135.943 8.89864 135.842 8.17985 135.842 7.46105C135.842 6.74226 135.971 5.99473 136.232 5.21842C136.782 3.7521 137.956 2.51577 139.751 1.50946C141.576 0.503153 144.269 0 147.832 0Z" fill="#E8E8E8"/>
<path d="M164.992 9.05676C168.931 9.05676 171.827 9.84743 173.681 11.4288C175.564 13.0101 176.504 15.0803 176.504 17.6391C176.504 18.5017 176.389 19.4649 176.157 20.5287C175.606 22.8863 174.579 24.9565 173.073 26.739C171.567 28.4929 169.713 29.8587 167.512 30.8361C165.34 31.785 162.979 32.2594 160.43 32.2594C156.405 32.2594 153.422 31.4687 151.481 29.8874C149.57 28.2772 148.614 26.1497 148.614 23.5045C148.614 22.6131 148.73 21.6213 148.962 20.5287C149.512 18.286 150.555 16.3022 152.09 14.5771C153.654 12.8233 155.551 11.4719 157.781 10.5231C160.04 9.54554 162.443 9.05676 164.992 9.05676ZM164.862 12.8951C164.254 12.8951 163.602 13.4414 162.907 14.5339C162.241 15.5978 161.444 17.6247 160.518 20.6149C159.591 23.6051 159.128 25.7039 159.128 26.9116C159.128 27.544 159.229 27.9753 159.432 28.2054C159.634 28.4067 159.91 28.5073 160.257 28.5073C160.865 28.5648 161.488 28.0473 162.125 26.9547C162.792 25.8621 163.616 23.7345 164.602 20.5718C165.5 17.7829 165.948 15.7559 165.948 14.4908C165.948 13.887 165.847 13.4701 165.644 13.2402C165.47 13.0101 165.209 12.8951 164.862 12.8951Z" fill="#E8E8E8"/>
<path d="M193.502 9.05676C197.441 9.05676 200.337 9.84743 202.191 11.4288C204.073 13.0101 205.014 15.0803 205.014 17.6391C205.014 18.5017 204.899 19.4649 204.666 20.5287C204.116 22.8863 203.089 24.9565 201.582 26.739C200.076 28.4929 198.222 29.8587 196.022 30.8361C193.849 31.785 191.489 32.2594 188.94 32.2594C184.914 32.2594 181.931 31.4687 179.991 29.8874C178.08 28.2772 177.124 26.1497 177.124 23.5045C177.124 22.6131 177.24 21.6213 177.471 20.5287C178.022 18.286 179.064 16.3022 180.599 14.5771C182.164 12.8233 184.06 11.4719 186.29 10.5231C188.55 9.54554 190.954 9.05676 193.502 9.05676ZM193.371 12.8951C192.764 12.8951 192.111 13.4414 191.416 14.5339C190.751 15.5978 189.954 17.6247 189.028 20.6149C188.1 23.6051 187.637 25.7039 187.637 26.9116C187.637 27.544 187.738 27.9753 187.941 28.2054C188.144 28.4067 188.419 28.5073 188.767 28.5073C189.375 28.5648 189.998 28.0473 190.635 26.9547C191.3 25.8621 192.126 23.7345 193.111 20.5718C194.009 17.7829 194.458 15.7559 194.458 14.4908C194.458 13.887 194.357 13.4701 194.154 13.2402C193.98 13.0101 193.719 12.8951 193.371 12.8951Z" fill="#E8E8E8"/>
<path d="M229.484 25.6608C229.425 25.8909 229.397 26.0491 229.397 26.1353C229.397 26.3365 229.454 26.4947 229.57 26.6097C229.686 26.7246 229.831 26.7821 230.004 26.7821C230.352 26.7821 230.642 26.6384 230.874 26.3509C231.135 26.0346 231.308 25.8765 231.394 25.8765C231.54 25.8765 231.655 25.9771 231.743 26.1784C231.83 26.3796 231.872 26.6097 231.872 26.8685C231.902 27.6448 231.597 28.4354 230.96 29.2405C230.352 30.0455 229.526 30.7068 228.485 31.2243C227.441 31.7418 226.312 32.0006 225.096 32.0006C223.648 32.0006 222.387 31.7274 221.316 31.1812C220.245 30.6348 219.506 29.9161 219.101 29.0248C218.319 30.0311 217.421 30.7787 216.407 31.2674C215.394 31.7563 214.322 32.0006 213.193 32.0006C211.861 32.0006 210.615 31.6699 209.456 31.0086C208.327 30.3474 207.414 29.4129 206.719 28.2054C206.053 26.9691 205.72 25.5746 205.72 24.022C205.72 21.4056 206.212 18.9474 207.197 16.6472C208.211 14.3184 209.615 12.4495 211.411 11.0406C213.207 9.60305 215.248 8.88427 217.536 8.88427C218.783 8.88427 219.839 9.02802 220.708 9.31554C221.606 9.60305 222.417 10.0343 223.14 10.6094L224.618 5.77908C224.705 5.52032 224.749 5.30469 224.749 5.13217C224.749 4.81591 224.661 4.55714 224.488 4.35587C224.343 4.15461 224.14 3.95335 223.879 3.7521C223.59 3.52208 223.373 3.32081 223.228 3.14831C223.112 2.97579 223.098 2.74578 223.184 2.45827C223.359 1.79698 224.271 1.22194 225.922 0.733165C227.572 0.244388 229.295 0 231.091 0C232.77 0 234.001 0.316268 234.783 0.948806C235.594 1.58133 236 2.44389 236 3.53646C236 4.16898 235.898 4.78715 235.696 5.39094L229.484 25.6608ZM222.228 13.5421C221.766 13.1396 221.258 12.9382 220.708 12.9382C219.868 12.9382 219.042 13.5564 218.232 14.7927C217.421 16.029 216.769 17.5241 216.276 19.278C215.784 21.0318 215.553 22.6131 215.581 24.022C215.581 25.6033 216.103 26.394 217.146 26.394C217.522 26.394 217.841 26.2503 218.102 25.9627C218.362 25.6464 218.608 25.1433 218.84 24.4533L222.228 13.5421Z" fill="#E8E8E8"/>
</g>
<defs>
<clipPath id="clip0_156_608">
<rect width="236" height="41" fill="white"/>
</clipPath>
</defs>
</svg>

<svg xmlns="http://www.w3.org/2000/svg" width="236" height="41" fill="none"><g fill="#E8E8E8" clip-path="url(#a)"><path d="M16.378 9.057q5.908 0 8.689 2.372 2.823 2.371 2.823 6.21 0 1.294-.347 2.89-.825 3.535-3.084 6.21-2.26 2.631-5.561 4.097-3.259 1.423-7.081 1.423-6.04 0-8.95-2.372Q0 27.472 0 23.505q0-1.338.348-2.976a13.75 13.75 0 0 1 3.127-5.952q2.346-2.63 5.691-4.054 3.39-1.466 7.212-1.466m-.13 3.838q-.913 0-1.955 1.639-1 1.595-2.39 6.08t-1.39 6.298q0 .948.304 1.293.304.303.826.302.912.086 1.868-1.552.999-1.639 2.476-6.383 1.347-4.184 1.347-6.081 0-.905-.304-1.25-.261-.345-.782-.346M53.857 25.92q-.087.172-.087.517 0 .302.13.475.175.172.435.172.521 0 .869-.431.39-.474.521-.475.217 0 .348.302.13.26.13.647.044 1.25-.825 2.459-.87 1.164-2.563 1.94-1.651.733-3.997.733-2.867.001-4.562-1.294-1.695-1.336-1.737-3.536 0-1.596.781-3.58l2.39-6.21q.217-.56.217-.905 0-.561-.39-.863a1.18 1.18 0 0 0-.87-.345q-.825 0-1.694.776-.826.733-1.347 2.415v-.086l-2.737 8.755q-.13.517-.13.906 0 .56.217.905.218.302.608.604.304.302.435.518.13.172.043.474-.217.56-.869.82-.651.258-1.998.258H27.27q-1.13 0-1.65-.345-.522-.389-.348-.992.173-.518.912-.905a4 4 0 0 0 1.086-.82q.435-.474.739-1.51l6.603-21.52q.13-.388.13-.647 0-.474-.26-.776a3 3 0 0 0-.609-.604 4.6 4.6 0 0 1-.651-.604q-.174-.258-.044-.69.26-.991 2.737-1.725A18.1 18.1 0 0 1 41.085 0q2.52 0 3.693.949 1.215.949 1.216 2.587a5.8 5.8 0 0 1-.304 1.855l-2.346 7.59q1.695-2.2 3.562-3.062 1.912-.862 4.127-.862 2.65 0 4.258 1.595 1.65 1.596 1.65 4.14 0 1.338-.434 2.632zM99.384 25.92q-.087.172-.087.517 0 .302.13.475.173.172.435.172.52 0 .869-.431.39-.474.521-.475.218 0 .347.302.13.26.131.647.044 1.25-.826 2.459-.868 1.164-2.563 1.94-1.65.733-3.997.733-2.867.001-4.561-1.294-1.695-1.336-1.738-3.536 0-1.596.782-3.58l2.39-6.21q.217-.561.217-.905 0-.561-.391-.863a1.18 1.18 0 0 0-.87-.345q-.738 0-1.52.647-.78.647-1.39 2.027l-2.39 7.72q-.086.172-.086.517 0 .302.13.475.173.172.435.172.52 0 .869-.431.39-.474.52-.475.219 0 .348.302.13.26.13.647.045 1.25-.825 2.459-.868 1.164-2.563 1.94-1.65.733-3.997.733-2.867.001-4.561-1.294-1.695-1.336-1.738-3.536 0-1.596.782-3.58l2.39-6.21q.217-.561.217-.905 0-.561-.391-.863a1.18 1.18 0 0 0-.87-.345q-.738 0-1.52.647-.78.604-1.303 1.984l-2.867 9.229a2.6 2.6 0 0 0-.174.906q0 .517.217.862.218.302.608.647.305.259.435.474.13.216.043.518-.172.56-.825.82-.651.258-2.042.258H58.33q-1.13 0-1.607-.345-.522-.389-.391-.992.173-.518.912-.905.652-.346 1.086-.82t.739-1.51l3.866-12.463q.087-.216.087-.604 0-.474-.217-.733-.174-.259-.608-.647-.435-.345-.609-.604-.174-.258-.043-.69.26-.992 2.737-1.725a17.2 17.2 0 0 1 5.17-.776q2.129 0 3.345 1.164 1.26 1.165 1.216 3.192 1.781-2.46 3.736-3.407 1.998-.95 4.301-.95 2.52 0 4.084 1.467 1.607 1.424 1.78 3.752 1.868-2.932 3.998-4.054 2.128-1.164 4.648-1.164 2.65 0 4.257 1.595 1.651 1.596 1.651 4.14 0 1.338-.434 2.632z"/><path d="M126.192 9.057q1.912 0 3.04 1.552 1.174 1.51 1.173 4.14 0 2.286-.824 4.917-1.609 5.305-5.17 10.006-3.519 4.701-8.124 7.547-4.561 2.846-9.123 2.846-2.259 0-3.91-.776-1.608-.776-2.433-2.07-.869-1.294-.869-2.76 0-.647.218-1.423.39-1.208 1.303-1.855t2.172-.647q1.998 0 3.258 1.337 1.303 1.38 1.651 3.752 2.78-.13 5.126-2.372-2.215-.387-3.301-1.466-1.043-1.121-1.434-3.45l-1.738-10.566q-.13-.82-.391-1.122a.68.68 0 0 0-.608-.345q-.305 0-.738.302-.391.302-.565.302-.348 0-.348-.733 0-.604.217-1.294.783-2.458 2.911-4.14 2.129-1.725 4.953-1.725 2.78 0 4.083 1.639 1.347 1.638 1.738 5.045l1.303 9.488q.13 1.08.782 1.079.782 0 1.824-1.38 1.044-1.424 2.043-4.011a8.1 8.1 0 0 1-1.999-2.674 7.65 7.65 0 0 1-.695-3.235q0-1.337.348-2.415.52-1.725 1.607-2.588 1.13-.905 2.52-.905M147.832 0q4.648 0 6.951 1.423 2.345 1.38 2.346 3.407 0 1.64-1.39 2.545-1.348.862-3.563.862-2.042 0-3.172-.992-1.129-.99-1.129-2.458 0-.906.564-1.897-1.302 0-2.171.646-.869.604-1.348 2.114a6.7 6.7 0 0 0-.26 1.768q0 1.035.348 1.639.392.56 1.085.56h2.565q2.258 0 2.258 1.38 0 .173-.087.518-.261.95-1.086 1.423-.782.475-2.389.475h-1.303l-4.301 13.973a3.8 3.8 0 0 0-.131.906q0 .56.217.905.218.302.609.604.304.302.434.518.13.172.044.474-.217.56-.869.82-.652.258-1.999.258h-9.905q-1.129 0-1.65-.345-.522-.389-.349-.992.175-.518.913-.905.652-.346 1.086-.82t.739-1.51l3.388-11.04q.217-.647.217-1.337 0-.862-.391-1.337-.347-.518-1.085-1.121a10 10 0 0 1-.739-.647 1.15 1.15 0 0 1-.217-.69q-.043-.819.564-1.165.653-.345 2.433-.345h1.087a8 8 0 0 1-.304-2.156q0-1.078.39-2.243.826-2.199 3.519-3.709Q142.488 0 147.832 0"/><path d="M164.992 9.057q5.908 0 8.689 2.372 2.824 2.371 2.823 6.21 0 1.294-.347 2.89-.826 3.535-3.084 6.21-2.26 2.631-5.561 4.097-3.258 1.423-7.082 1.423-6.038 0-8.949-2.372-2.867-2.415-2.867-6.382 0-1.338.348-2.976a13.75 13.75 0 0 1 3.128-5.952q2.346-2.63 5.691-4.054 3.388-1.466 7.211-1.466m-.13 3.838q-.912 0-1.955 1.639-1 1.595-2.389 6.08-1.39 4.486-1.39 6.298 0 .948.304 1.293.304.303.825.302.912.086 1.868-1.552 1-1.639 2.477-6.383 1.347-4.184 1.346-6.081 0-.905-.304-1.25-.261-.345-.782-.346M193.502 9.057q5.908 0 8.689 2.372 2.823 2.371 2.823 6.21 0 1.294-.348 2.89-.824 3.535-3.084 6.21-2.26 2.631-5.56 4.097-3.259 1.423-7.082 1.423-6.039 0-8.949-2.372-2.867-2.415-2.867-6.382 0-1.338.347-2.976a13.76 13.76 0 0 1 3.128-5.952q2.347-2.63 5.691-4.054 3.39-1.466 7.212-1.466m-.131 3.838q-.911 0-1.955 1.639-.998 1.595-2.388 6.08-1.391 4.486-1.391 6.298 0 .948.304 1.293.304.303.826.302.912.086 1.868-1.552.998-1.639 2.476-6.383 1.347-4.184 1.347-6.081 0-.905-.304-1.25-.261-.345-.783-.346M229.484 25.66a2.3 2.3 0 0 0-.087.475q0 .302.173.475a.6.6 0 0 0 .434.172q.522 0 .87-.431.391-.474.52-.474.218 0 .349.301.13.303.129.69.044 1.165-.912 2.373-.913 1.207-2.475 1.983a7.5 7.5 0 0 1-3.389.777q-2.173 0-3.78-.82t-2.215-2.156q-1.173 1.51-2.694 2.242a7.3 7.3 0 0 1-3.214.734 7.4 7.4 0 0 1-3.737-.992q-1.694-.992-2.737-2.804-.999-1.854-.999-4.183 0-3.925 1.477-7.375 1.52-3.493 4.214-5.606 2.693-2.157 6.125-2.157 1.87 0 3.172.432a7.6 7.6 0 0 1 2.432 1.293l1.478-4.83q.13-.388.131-.647 0-.474-.261-.776a3 3 0 0 0-.609-.604 4.7 4.7 0 0 1-.651-.604q-.173-.258-.044-.69.262-.991 2.738-1.725A18.1 18.1 0 0 1 231.091 0q2.519 0 3.692.949Q236 1.898 236 3.536q0 .95-.304 1.855zm-7.256-12.118q-.694-.603-1.52-.604-1.26 0-2.476 1.855-1.217 1.854-1.956 4.485-.738 2.63-.695 4.744 0 2.372 1.565 2.372.564 0 .956-.431.39-.475.738-1.51z"/></g><defs><clipPath id="a"><path fill="#fff" d="M0 0h236v41H0z"/></clipPath></defs></svg>
